assets/Motor scooter/Flat/motor_scooter_flat.svg

<svg width="32" height="32" viewBox="0 0 32 32" fill="none" xmlns="http://www.w3.org/2000/svg">
<path d="M6.5 30C8.433 30 10 28.433 10 26.5C10 24.567 8.433 23 6.5 23C4.567 23 3 24.567 3 26.5C3 28.433 4.567 30 6.5 30ZM25.5 30C27.433 30 29 28.433 29 26.5C29 24.567 27.433 23 25.5 23C23.567 23 22 24.567 22 26.5C22 28.433 23.567 30 25.5 30Z" fill="#433B6B"/>
<path d="M6.5 28C7.32843 28 8 27.3284 8 26.5C8 25.6716 7.32843 25 6.5 25C5.67157 25 5 25.6716 5 26.5C5 27.3284 5.67157 28 6.5 28ZM25.5 28C26.3284 28 27 27.3284 27 26.5C27 25.6716 26.3284 25 25.5 25C24.6716 25 24 25.6716 24 26.5C24 27.3284 24.6716 28 25.5 28Z" fill="#F3EEF8"/>
<path d="M12 11C12 9.89543 11.1046 9 10 9C8.89543 9 8 9.89543 8 11V24.5172C8 25.8884 9.11157 27 10.4828 27H20.2353C20.6576 27 21 26.6576 21 26.2353V21H27C27.5523 21 28 20.5523 28 20V19C28 17.3431 26.6569 16 25 16H14.5C14.2239 16 14 16.2239 14 16.5V18C14 19.1046 14.8954 20 16 20H16.5C17.3284 20 18 20.6716 18 21.5C18 22.3284 17.3284 23 16.5 23H12.6667C12.2985 23 12 22.7015 12 22.3333V11Z" fill="#F92F60"/>
<path d="M9 10C9 9.44772 9.44772 9 10 9H13C13.5523 9 14 9.44772 14 10V10C14 10.5523 13.5523 11 13 11H10C9.44772 11 9 10.5523 9 10V10Z" fill="#636363"/>
<path d="M8 14H8.5C8.77614 14 9 14.2239 9 14.5V17.5C9 17.7761 8.77614 18 8.5 18H8V14Z" fill="#F9C23C"/>
<path d="M22.5 20C20.567 20 19 21.567 19 23.5C19 25.433 20.567 27 22.5 27H29C29.5523 27 30 26.5523 30 26V23.4138C30 21.5284 28.4716 20 26.5862 20H22.5ZM6.5 21C4.01472 21 2 23.056 2 25.5413C2 25.7923 2.20351 26 2.45454 26H10.5455C10.7965 26 11 25.7923 11 25.5413C11 23.056 8.98528 21 6.5 21Z" fill="#CA0B4A"/>
<path d="M14 15.6667C14 14.7462 14.7462 14 15.6667 14H21.3333C22.2538 14 23 14.7462 23 15.6667V15.6667C23 15.8508 22.8508 16 22.6667 16H14.3333C14.1492 16 14 15.8508 14 15.6667V15.6667Z" fill="#8C5543"/>
</svg>

<svg xmlns="http://www.w3.org/2000/svg" width="32" height="32" fill="none"><path fill="#433B6B" d="M6.5 30a3.5 3.5 0 1 0 0-7 3.5 3.5 0 0 0 0 7Zm19 0a3.5 3.5 0 1 0 0-7 3.5 3.5 0 0 0 0 7Z"/><path fill="#F3EEF8" d="M6.5 28a1.5 1.5 0 1 0 0-3 1.5 1.5 0 0 0 0 3Zm19 0a1.5 1.5 0 1 0 0-3 1.5 1.5 0 0 0 0 3Z"/><path fill="#F92F60" d="M12 11a2 2 0 1 0-4 0v13.517A2.483 2.483 0 0 0 10.483 27h9.752a.765.765 0 0 0 .765-.765V21h6a1 1 0 0 0 1-1v-1a3 3 0 0 0-3-3H14.5a.5.5 0 0 0-.5.5V18a2 2 0 0 0 2 2h.5a1.5 1.5 0 0 1 0 3h-3.833a.667.667 0 0 1-.667-.667V11Z"/><path fill="#636363" d="M9 10a1 1 0 0 1 1-1h3a1 1 0 1 1 0 2h-3a1 1 0 0 1-1-1Z"/><path fill="#F9C23C" d="M8 14h.5a.5.5 0 0 1 .5.5v3a.5.5 0 0 1-.5.5H8v-4Z"/><path fill="#CA0B4A" d="M22.5 20a3.5 3.5 0 1 0 0 7H29a1 1 0 0 0 1-1v-2.586A3.414 3.414 0 0 0 26.586 20H22.5Zm-16 1C4.015 21 2 23.056 2 25.541c0 .251.204.459.455.459h8.09a.458.458 0 0 0 .455-.459C11 23.056 8.985 21 6.5 21Z"/><path fill="#8C5543" d="M14 15.667c0-.92.746-1.667 1.667-1.667h5.666c.92 0 1.667.746 1.667 1.667 0 .184-.15.333-.333.333h-8.334a.333.333 0 0 1-.333-.333Z"/></svg>
